X: 1
T: Dance for Joy!
C: James Gray
R: reel
B: Alex & James Gray "Tweeddale Collection" v.4 #5 p.17, p.46 #1,4
N: Tune for Carlin's Loup
Z: 2017 John Chambers <jc:trillian.mit.edu>
M: C
L: 1/8
K: D
f2 |\
"D"abaf dfaf | "Em"g2gf e2ef |\
"Em"gage "A7"Aceg | "D"f2fd "A7"AGFE |
"D"D2FA dAFA | "G"G2Bd g2dB |\
"A7"A2ce gece | "D"d2f2 d2 :|
|: FE |\
"D"D2FA D2FA | "G"D2GB D2GB |\
"A"A2ce A2ce | "D"d2fa d2fa |
"D"D2FA D2FA | "G"D2GB D2GB |\
"A7"A2ce gece | "D"d2f2 d2 :|
